brandFactory_export/1.Light/Copa bebida bar_1Light.svg

<?xml version="1.0" encoding="UTF-8"?>
<svg width="24px" height="24px" viewBox="0 0 24 24" version="1.1" xmlns="http://www.w3.org/2000/svg" xmlns:xlink="http://www.w3.org/1999/xlink">
    <title>1.Light/Copa bebida bar_1Light</title>
    <g id="Symbols" stroke="none" stroke-width="1" fill="none" fill-rule="evenodd">
        <g id="1.Light/Copa-bebida-bar_1Light" fill="#5CB615" fill-rule="nonzero">
            <path d="M18.6722689,8.94453782 C18.3294118,8.94453782 18.010084,8.9210084 17.7109244,8.87394958 L19.2638655,7.07226891 C19.4319328,6.89411765 19.5361345,6.65546218 19.5361345,6.38991597 C19.5361345,5.84201681 19.0991597,5.39831933 18.5546218,5.39831933 L18.5445378,5.39831933 L14.7462185,5.41512605 C14.7361345,5.26722689 14.7260504,5.12268908 14.7260504,4.96806723 C14.7260504,2.29243697 16.0168067,0.991596639 18.6756303,0.991596639 C21.3344538,0.991596639 22.6285714,2.29243697 22.6285714,4.96806723 C22.6285714,7.64705882 21.3344538,8.94453782 18.6722689,8.94453782 L18.6722689,8.94453782 Z M11.6168067,14.4268908 L6.40336134,8.90756303 L16.3697479,8.90756303 L16.3563025,8.92773109 L11.6168067,14.4268908 L11.6168067,14.4268908 Z M9.00504202,22.605042 L11.6436975,21.3848739 L14.507563,22.594958 C14.5042017,22.5983193 9.00504202,22.605042 9.00504202,22.605042 Z M18.5478992,6.38991597 L17.2336134,7.91260504 L5.79831933,7.91260504 C5.70756303,7.91596639 5.62016807,7.94285714 5.54285714,7.99327731 L4.0907563,6.45378151 C4.0907563,6.45714286 18.5478992,6.38991597 18.5478992,6.38991597 L18.5478992,6.38991597 Z M18.6722689,0 C15.4890756,0 13.7378151,1.76470588 13.7378151,4.97142857 C13.7378151,5.12941176 13.7512605,5.27394958 13.7579832,5.42184874 L7.27058824,5.45210084 C7.25378151,5.42857143 7.24369748,5.40168067 7.22352941,5.37815126 L4.68571429,2.82689076 C4.4,2.53781513 4.01008403,2.37310924 3.60336134,2.37310924 L0.504201681,2.37310924 C0.231932773,2.37310924 0.0100840336,2.59495798 0.0100840336,2.86722689 C0.0100840336,3.14285714 0.231932773,3.36470588 0.504201681,3.36470588 L3.61008403,3.36470588 C3.75462185,3.36470588 3.89243697,3.42184874 3.99327731,3.52605042 L5.91260504,5.45546218 L4.08739496,5.46554622 C3.69411765,5.46554622 3.33781513,5.70420168 3.18655462,6.06722689 C3.03193277,6.4302521 3.1092437,6.85378151 3.37815126,7.1394958 L10.9042017,15.1058824 C10.9714286,15.1798319 11.0588235,15.2268908 11.1428571,15.2739496 L11.1428571,20.5210084 L6.54117647,22.6521008 C6.29243697,22.7697479 6.18487395,23.0655462 6.30252101,23.3142857 C6.38319328,23.4857143 6.55798319,23.5966387 6.74621849,23.6 L16.9411765,23.5798319 C17.1932773,23.687395 17.4857143,23.5697479 17.5932773,23.3176471 C17.7008403,23.0655462 17.5831933,22.7731092 17.3310924,22.6655462 C17.2672269,22.6386555 17.2,22.6252101 17.1327731,22.6252101 L12.1277311,20.5109244 L12.1277311,15.2537815 C12.2117647,15.2033613 12.2957983,15.1529412 12.3630252,15.0756303 L16.9848739,9.71764706 C17.4991597,9.8487395 18.0571429,9.93277311 18.6756303,9.93277311 C21.8588235,9.93277311 23.6134454,8.16806723 23.6134454,4.96806723 C23.6134454,1.76806723 21.8588235,0 18.6722689,0 Z" id="Copa-bebida-bar_1Light"></path>
        </g>
    </g>
</svg>

<svg width="24" height="24" viewBox="0 0 24 24" xmlns="http://www.w3.org/2000/svg"><path d="M18.672 8.945c-.343 0-.662-.024-.961-.071l1.553-1.802a.99.99 0 00.272-.682.985.985 0 00-.981-.992h-.01l-3.799.017c-.01-.148-.02-.292-.02-.447 0-2.676 1.29-3.976 3.95-3.976 2.658 0 3.953 1.3 3.953 3.976 0 2.68-1.295 3.977-3.957 3.977zm-7.055 5.482l-5.214-5.52h9.967l-.014.02-4.74 5.5zm-2.612 8.178l2.639-1.22 2.864 1.21c-.004.003-5.503.01-5.503.01zM18.548 6.39l-1.314 1.523H5.798a.498.498 0 00-.255.08L4.09 6.453c0 .004 14.457-.063 14.457-.063zM18.672 0c-3.183 0-4.934 1.765-4.934 4.971 0 .158.013.303.02.45l-6.487.031c-.017-.023-.027-.05-.047-.074L4.686 2.827a1.524 1.524 0 00-1.083-.454H.504a.495.495 0 000 .992H3.61c.145 0 .282.057.383.161l1.92 1.93-1.826.01a.978.978 0 00-.9.601 1 1 0 00.191 1.072l7.526 7.967c.067.074.155.12.239.168v5.247L6.54 22.652a.497.497 0 00.205.948l10.195-.02a.497.497 0 10.192-.955l-5.005-2.114v-5.257c.084-.05.168-.101.235-.178l4.622-5.358a6.78 6.78 0 001.69.215c3.184 0 4.938-1.765 4.938-4.965S21.86 0 18.673 0z" fill="#5CB615" fill-rule="nonzero"/></svg>
